X:0272
T:The Ale Wife and her Barrel.
M:C|
L:1/8
Q:1/2=104
I: :: (1) :: (2) ||
Z:Jack Campin * www.campin.me.uk * 2009
K:G
(G2    G)B AGAB| G2GB      dgdB| G2    GB  AGAB|    dBGB d2e2:|
(de/f/ g)e afge|(de/f/ g)e afg2|(de/f/ g)e af gf|[1 edBd efg2:|\
                                                 [2 edBd efgB|]
<end>
<start>
